X: 090387
T: International [The]
M: 4/4
L: 1/8
R: reel
S: Brian Conway 
N: from Andy McGann and ultimately from Sean Maguire
Z: B.Black
K: C
B, | CEEF E2 eg | fedB cBcA | GFEG A2 Gc | ecAG EA,A,B, |
CEEF E2 eg | fedB cBcA | GFEG (3ABc GE | FEDF EC C :|
A | c2 ec gceb | ad d2 eEED | CEGc AF (3FEF | EGAc ecAB |
c2 ec gceb | ad d2 eEED | CEGE FEDc | Bg (3g^fg ec c :|
